X: 8946
T: Curragh, The
R: jig
M: 6/8
K: Dmajor
|:dcB|A2 d dcd|BGB A2 g|faf dcd|ecA GFE|
Add dB/c/d|BG/A/B A2 g|f/g/af Ace|d3:|
|:d2 e|f2 d a2 d|fdf A2 f|e2 c a2 c|ece Age|
fdd add|fd/e/f A2 g|fga Ace|d3-:|

